X:12795
T:Parade,The. HSJJ.132
M:2/4
L:1/8
Q:200
S:HSJ Jackson,Wyresdale,Lancs.1823
R:March
O:England
A:Lancashire
H:1823
Z:Chris Partington.
W:The 1st Lady set to the 2nd gent & turn the third. The Gent the
W:same.lead down the middle and up again. Allemande.
K:A
E|AA/B/ Ac|BB/c/ Bd|cf FB|A/G/F/G/ EG|A>BAc|B>cBd|cfeG|A2A:|!
|:c|dffa|ecce|FBBA|GBBd|cedf|egaA|FAGB|A2A:|]
